static/images/mobile/copyright/wikipedia-wordmark-arz.svg

<?xml version="1.0" encoding="UTF-8"?>
<svg width="107px" height="30px" viewBox="0 0 107 30" version="1.1" xmlns="http://www.w3.org/2000/svg" xmlns:xlink="http://www.w3.org/1999/xlink">
    <title>arz-wordmark</title>
    <g id="Page-1" stroke="none" stroke-width="1" fill="none" fill-rule="evenodd">
        <path d="M103.7798,16.5479878 C103.704409,16.0883276 103.44039,15.3651974 102.987872,14.3785881 C102.296505,13.4256373 101.69313,12.9491382 101.177768,12.9491382 C100.612099,13.1509574 100.197276,13.4816876 99.9333107,13.9413479 C99.9081096,13.9974455 99.8830144,14.0478672 99.8579192,14.0926981 C99.7447791,14.5187376 99.6882249,14.9055371 99.6882249,15.2530778 L99.7070727,15.6734981 C99.7698637,16.2564976 99.9961757,16.6601075 100.385861,16.8843279 C100.410956,16.9068047 100.442404,16.9236151 100.4801,16.934759 C100.832068,17.013239 101.228021,17.052479 101.667992,17.052479 C102.56047,17.052479 103.264406,16.8843184 103.7798,16.547969 M101.121182,10.6115496 C101.623985,10.6115496 102.001091,10.6676471 102.252509,10.7797196 C102.89358,11.0712287 103.471807,11.5252887 103.987201,12.1418995 C104.552849,12.7809588 105.068232,13.6049985 105.53334,14.6140091 C105.835012,15.2194287 106.086419,16.0266485 106.287551,17.0356686 L106.325247,17.3047387 L106.38179,18.4146589 L106.287551,19.7263983 L106.231008,20.2140885 C106.080151,21.0885782 105.765899,22.013518 105.288233,22.9888984 C104.885979,23.8633881 104.244898,24.7659078 103.364988,25.6964479 C102.912459,26.2345976 102.265088,26.7334979 101.422896,27.1931676 L100.81952,27.4790576 C100.316706,27.6584377 99.7070516,27.7481277 98.9905573,27.7481277 C98.3997508,27.7481277 97.6643876,27.6416178 96.7844781,27.4286075 C96.3193805,27.3501276 95.4080332,27.0586278 94.0504574,26.5541178 C93.9875606,26.5317354 93.9247485,26.5092586 93.8619046,26.4868762 L94.2767165,25.6292063 L97.85923,25.6123959 L98.0100765,25.6123959 C98.1483436,25.6123959 98.4311781,25.5507264 98.8585693,25.4274061 C99.5624948,25.2031763 100.322996,24.7995663 101.140061,24.2165763 C101.466881,23.9811364 102.013681,23.4766264 102.780482,22.7030368 C103.446691,21.9518862 103.962074,21.2735964 104.326611,20.6681768 C104.540301,20.2197266 104.647141,19.8777768 104.647151,19.6423369 C104.647141,19.4181165 104.584255,19.1826766 104.458599,18.9360171 C103.855223,19.2947868 102.912459,19.4685665 101.630307,19.457347 C101.15263,19.4573565 100.756666,19.4349646 100.442415,19.3901055 C99.7887539,19.3564847 99.1728204,19.1098347 98.5945933,18.6501555 C98.4814532,18.5716755 98.3808924,18.4819949 98.292911,18.3810854 C97.9535117,18.0111151 97.7146732,17.456155 97.5764061,16.7161956 C97.5387104,16.536825 97.5198625,16.3798651 97.5198625,16.2453158 L97.4821668,15.5558159 C97.507262,14.8719353 97.5952964,14.2665251 97.7461428,13.739576 C97.8592724,13.2238653 98.192382,12.6576952 98.7454821,12.041056 C98.8711699,11.8953251 98.9968788,11.7719954 99.1225877,11.6710764 C99.3739843,11.4020251 99.7510899,11.1329455 100.253904,10.8638565 C100.593293,10.6957054 100.882407,10.6115496 101.121245,10.6115496 M82.8880828,19.5750575 L87.6396278,19.5750575 C88.4441172,19.5750575 89.1103384,19.4629473 89.6382947,19.2387175 C90.1788071,19.003287 90.6501901,18.7005772 91.0524448,18.3305975 C91.4169732,17.9830474 91.6620918,17.5514171 91.7878028,17.0356875 C91.8631943,16.7329871 91.9009324,16.385437 91.9009324,15.9930277 C91.9009324,15.8360773 91.8945792,15.6622975 91.8820845,15.4716979 C91.8568834,14.5860075 91.7123732,13.6890976 91.4484067,12.7809682 C91.2472746,12.0746674 90.9770153,11.4244075 90.6376277,10.8301885 C90.2479427,10.1687374 89.8896924,9.65300786 89.5628725,9.28301872 L88.2995657,12.0578381 C88.3498408,12.1026973 88.63267,12.6184174 89.1480554,13.6050079 C89.6382873,14.5355574 89.9211175,15.1297575 89.9965461,15.3876081 L90.0531108,15.858488 L90.0154045,16.0602976 C89.8017036,16.4302773 89.0286351,16.6152672 87.6961979,16.6152577 L82.8880828,16.6152577 L82.8880828,19.5750575 M89.3931782,25.225587 L91.9575003,26.7727568 L90.2982348,28.6562666 L87.7339084,27.1763667 L89.3931782,25.225587 M84.830186,25.225587 L87.3945123,26.7727568 L85.7352415,28.6562666 L83.1709151,27.1763667 L84.830186,25.225587 M78.5513571,19.5750575 L82.8692307,19.5750575 L82.8692307,16.6152577 L81.6247781,16.6152577 C81.2727984,16.6152672 80.8768365,16.3798273 80.4368913,15.908938 L80.154061,15.6062377 C78.9598793,14.2608776 78.1930962,13.4256373 77.8537097,13.1004884 C76.9863552,12.2708673 76.0498735,11.4972777 75.0442636,10.7797385 L70.8960886,7.786299 L70.4435608,7.43313914 L81.1345387,3.21205953 L81.1345387,0.8576699 L73.0078872,3.98564914 C72.0022646,4.40048803 71.1223498,4.7816778 70.3681397,5.12920901 C69.1362559,5.891598 68.4260386,6.6371577 68.2374859,7.36587869 L68.1809211,8.18990892 L68.2751922,9.28301872 C68.3003297,9.41756796 68.3317569,9.58574741 68.3694739,9.78752876 L70.386995,11.2001682 C70.7263879,11.4131974 71.0720694,11.5925775 71.4240385,11.7383085 L72.5553595,11.7383085 C73.7118137,12.4894874 74.673435,13.2070077 75.4402266,13.8908979 C75.4653641,13.9133747 75.4905017,13.9357571 75.5156498,13.9581394 C76.4332677,14.7429486 76.9360759,15.3259386 77.0240774,15.7071189 L77.0429359,16.0266391 C76.967502,16.4190484 76.552688,16.6152483 75.7984832,16.6152389 L67.8792398,16.6152389 L67.8792398,19.5750575 L78.5513624,19.5750575 M64.3909889,19.5750953 C63.9635945,19.5750953 62.8322746,19.5750953 60.9970282,19.5750953 L56.4906018,19.5750953 L56.4906018,16.6152577 L60.8838955,16.6152577 L63.6744862,16.6152577 L63.6744862,16.1275581 C63.6116318,15.5221574 63.485926,15.0176473 63.2973796,14.614028 L61.9586506,12.1082882 C62.0340632,11.8504376 62.4300283,10.9367078 63.1465374,9.36710845 C63.1591061,9.33348767 63.1716749,9.30543887 63.1842437,9.2830565 C63.636764,9.7539552 64.1584285,10.6452553 64.7492371,11.9569663 L65.0697779,12.781006 C65.2331815,13.2855255 65.4091644,13.9357854 65.5977267,14.7317857 L65.8617017,16.0098759 C65.8742599,16.0771175 65.8931183,16.1276053 65.9182665,16.1612355 C66.0439595,16.4639453 66.3519294,16.615305 66.8421783,16.6152955 L67.8792218,16.6152955 L67.8792218,19.5750953 L65.7297137,19.5750953 L65.7108552,19.5750953 L64.3909804,19.5750953 M62.9956856,25.2256247 L65.5600119,26.7727945 L63.9007421,28.6563043 L61.3364158,27.1764045 L62.9956856,25.2256247 M58.4326934,25.2256247 L60.9970197,26.7727945 L59.3377499,28.6563043 L56.7734236,27.1764045 L58.4326934,25.2256247 M53.0023647,19.5750953 C52.5749692,19.5750953 51.4436504,19.5750953 49.6084029,19.5750953 L45.1019765,19.5750953 L45.1019765,16.6152577 L49.4952713,16.6152577 L52.285862,16.6152577 L52.285862,16.1275581 C52.2230075,15.5221574 52.0973007,15.0176473 51.9087543,14.614028 L50.5700253,12.1082882 C50.6454379,11.8504376 51.041403,10.9367078 51.7579121,9.36710845 C51.7704809,9.33348767 51.7830496,9.30543887 51.7956184,9.2830565 C52.2481398,9.7539552 52.7698032,10.6452553 53.3606118,11.9569663 L53.6811526,12.781006 C53.8445562,13.2855255 54.0205402,13.9357854 54.2091025,14.7317857 L54.4730764,16.0098759 C54.4856346,16.0771175 54.5044931,16.1276053 54.5296412,16.1612355 C54.6553332,16.4639453 54.9633041,16.615305 55.453552,16.6152955 L56.4905965,16.6152955 L56.4905965,19.5750953 L54.3410874,19.5750953 L54.3222289,19.5750953 L53.0023552,19.5750953 M51.6259145,22.7535246 L54.1902409,24.3006944 L52.5309711,26.2514647 L49.9666447,24.7715648 L51.6259145,22.7535246 M49.8912236,25.6628743 L52.45555,27.2100441 L50.7962802,29.1944541 L48.2319538,27.6809145 L49.8912236,25.6628743 M47.044067,22.7367048 L49.6083934,24.2838746 L47.9491236,26.2346543 L45.3847972,24.7547544 L47.044067,22.7367048 M40.2184361,25.2256247 L42.7827625,26.7727945 L41.1234927,28.6563043 L38.5591663,27.1764045 L40.2184361,25.2256247 Z M35.6554428,25.2256247 L38.2197702,26.7727945 L36.5604994,28.6563043 L33.996173,27.1764045 L35.6554428,25.2256247 Z M40.8972367,16.6152577 L40.8972367,16.1275581 C40.8343823,15.5221574 40.7086765,15.0176473 40.5201301,14.614028 L39.1814011,12.1082882 C39.2568137,11.8504376 39.6527778,10.9367078 40.3692868,9.36710845 C40.3818556,9.33348767 40.3944244,9.30543887 40.4069931,9.2830565 C40.8595145,9.7539552 41.3811779,10.6452553 41.9719865,11.9569663 L42.2925273,12.781006 C42.455932,13.2855255 42.6319149,13.9357854 42.8204772,14.7317857 L43.0844522,16.0098759 C43.0970104,16.0771175 43.1158688,16.1276053 43.141017,16.1612355 C43.26671,16.4639453 43.5746799,16.615305 44.0649288,16.6152955 L45.1019723,16.6152955 L45.1019723,19.5750953 L22.7206985,19.5750575 C22.2053152,19.5750575 21.7339322,19.4124973 21.3065473,19.0873673 C21.0551401,18.9079872 20.8351611,18.6220973 20.6466104,18.2296974 C20.4831952,17.8933574 20.3700688,17.5177774 20.3072144,17.1029479 L20.3072144,17.1029479 L20.2883559,16.817058 L20.3260622,15.9425777 C20.3512008,15.7407775 20.4391928,15.5333675 20.5900372,15.3203477 C20.6654562,15.2306671 20.8162984,15.0737072 21.0425649,14.8494679 C21.0425543,15.2194476 21.0551337,15.4492494 21.0802713,15.5389678 C21.1305495,15.8192574 21.1934019,15.9986281 21.2688251,16.077108 C21.3693838,16.1892371 21.5076562,16.3013473 21.6836423,16.4134481 C21.8973326,16.5480162 22.255584,16.6152672 22.7583974,16.6152577 L22.7583974,16.6152577 L28.7166845,16.6152577 C29.4331766,16.6152672 29.9171305,16.5143671 30.1685462,16.3125479 L30.1685462,16.3125479 L30.3382437,16.0602976 L30.3948085,15.7575878 C30.3947958,15.6118474 30.2942339,15.2867175 30.093123,14.782198 C29.6782941,14.0086273 29.1754849,13.2182273 28.5846954,12.4109885 C27.453366,11.0432177 26.290621,9.98934789 25.0964572,9.2493885 C25.5615484,8.01614803 25.9449405,7.04076762 26.2466334,6.32321894 C26.5483105,6.60351803 26.8562804,6.90061808 27.1705453,7.21451906 C28.6286808,8.72807751 29.7977112,10.2640278 30.6776377,11.8223982 C30.9038894,12.2260176 31.1301538,12.6968974 31.3564309,13.2350282 L31.3564309,13.2350282 L32.2049205,15.4380582 C32.2300506,15.5501873 32.267757,15.6679072 32.3180532,15.7912181 C32.5191621,16.3405873 32.6762898,16.6152672 32.7894363,16.6152577 L32.7894363,16.6152577 L40.8972367,16.6152577 Z M7.4667157,19.5750575 L12.2182607,19.5750575 C13.0227501,19.5750575 13.6889714,19.4629473 14.2169276,19.2387175 C14.75744,19.003287 15.228823,18.7005772 15.6310778,18.3305975 C15.9956061,17.9830474 16.2407247,17.5514171 16.3664357,17.0356875 C16.4418484,16.7329871 16.4795685,16.385437 16.4795685,15.9930277 C16.4795685,15.8360773 16.4733211,15.6622975 16.46071,15.4716979 C16.4355619,14.5860075 16.291003,13.6890976 16.0270365,12.7809682 C15.8259043,12.0746674 15.555645,11.4244075 15.2162574,10.8301885 C14.8265725,10.1687374 14.4683211,9.65300786 14.1415023,9.28301872 L12.8781944,12.0578381 C12.9284695,12.1026973 13.2112997,12.6184174 13.7266851,13.6050079 C14.2169171,14.5355574 14.4997473,15.1297575 14.5751758,15.3876081 L14.6317406,15.858488 L14.5940343,16.0602976 C14.3803333,16.4302773 13.6072648,16.6152672 12.2748276,16.6152577 L7.4667157,16.6152577 L7.4667157,19.5750575 M13.971808,25.225587 L16.5361343,26.7727568 L14.8768645,28.6562666 L12.3125382,27.1763667 L13.971808,25.225587 M9.40881574,25.225587 L11.9731421,26.7727568 L10.3138712,28.6562666 L7.74954488,27.1763667 L9.40881574,25.225587 M4.75154607,15.3035279 L4.39329472,12.7977881 C4.34300903,12.3269177 4.17330941,11.0039777 3.88420008,8.82895874 C3.75849222,7.87600793 3.48823288,6.40731811 3.07342098,4.42288929 C2.6585985,2.47213791 2.26892204,1.09873846 1.90438948,0.302709801 C1.8541038,0.201838014 1.8038287,0.100928451 1.75354725,1.42108547e-14 L3.55271368e-15,3.19524914 C0.364534678,3.83431785 0.597083466,4.37245812 0.697647422,4.80967938 C0.697645305,4.84330016 0.703894749,4.88258736 0.716505877,4.92739933 L1.41415436,8.34126854 C1.45186068,8.54308767 1.48328791,8.7448879 1.50842546,8.9466787 C1.72211579,10.4826479 1.87295802,11.7158978 1.9609532,12.6464284 C2.08665153,14.0814975 2.23749481,15.4044374 2.413482,16.6152577 C2.47632587,17.0412973 2.60203055,17.5065673 2.79058863,18.0110679 C2.90371607,18.3362073 3.1425503,18.6781571 3.50709133,19.0369173 L3.60137302,19.1209692 C3.97847435,19.4124689 4.48756793,19.5638286 5.12865587,19.5750363 L5.9582913,19.5750363 C5.95828389,19.5750363 6.44852219,19.5750363 7.42900726,19.5750363 L7.42900726,16.6152294 L5.99600186,16.6152294 L5.46805194,16.6152294 C5.20407063,16.6152389 4.98409168,16.262079 4.80811508,15.5557498 C4.78296694,15.4772699 4.76410849,15.393199 4.7515503,15.3034995" id="arz-wordmark" fill="#000000" fill-rule="nonzero"></path>
    </g>
</svg>

<svg xmlns="http://www.w3.org/2000/svg" width="107" height="30"><path fill="#000" fill-rule="nonzero" d="M103.78 16.548c-.076-.46-.34-1.183-.792-2.17-.691-.952-1.295-1.429-1.81-1.429-.566.202-.98.533-1.245.992a1.93 1.93 0 0 1-.075.152 4.56 4.56 0 0 0-.17 1.16l.02.42c.062.583.288.987.678 1.211.025.023.056.04.094.05.352.08.748.118 1.188.118.892 0 1.596-.168 2.112-.504m-2.659-5.936c.503 0 .88.056 1.132.168.64.291 1.219.745 1.734 1.362.566.639 1.081 1.463 1.546 2.472.302.605.553 1.413.755 2.422l.037.269.057 1.11-.094 1.311-.057.488c-.15.875-.465 1.8-.943 2.775-.402.874-1.043 1.777-1.923 2.707-.453.539-1.1 1.037-1.942 1.497l-.603.286c-.503.18-1.113.27-1.83.27-.59 0-1.326-.107-2.206-.32-.465-.079-1.376-.37-2.734-.875l-.188-.067.415-.858 3.582-.017h.151c.138 0 .421-.061.849-.185.703-.224 1.464-.627 2.281-1.21.327-.236.874-.74 1.64-1.514.667-.751 1.182-1.43 1.547-2.035.213-.448.32-.79.32-1.026 0-.224-.063-.46-.188-.706-.604.359-1.547.533-2.829.521-.477 0-.873-.022-1.188-.067-.653-.034-1.27-.28-1.847-.74a1.633 1.633 0 0 1-.302-.269c-.34-.37-.578-.925-.717-1.665a2.329 2.329 0 0 1-.056-.47l-.038-.69c.025-.684.113-1.29.264-1.816.113-.516.446-1.082 1-1.699.125-.146.25-.269.377-.37.251-.269.628-.538 1.13-.807.34-.168.63-.252.868-.252m-18.233 8.963h4.752c.804 0 1.47-.112 1.998-.336a5.043 5.043 0 0 0 1.414-.908c.365-.348.61-.78.736-1.295.075-.303.113-.65.113-1.043 0-.157-.006-.33-.019-.521a10.706 10.706 0 0 0-.434-2.691 8.745 8.745 0 0 0-.81-1.95c-.39-.662-.748-1.178-1.075-1.548L88.3 12.058c.05.045.333.56.848 1.547.49.93.773 1.525.849 1.783l.056.47-.038.202c-.213.37-.986.555-2.319.555h-4.808v2.96m6.505 5.65 2.565 1.548-1.66 1.883-2.564-1.48 1.66-1.95m-4.564 0 2.565 1.547-1.66 1.883-2.564-1.48 1.66-1.95m-6.28-5.65h4.318v-2.96h-1.244c-.352 0-.748-.236-1.188-.707l-.283-.303c-1.194-1.345-1.96-2.18-2.3-2.506a25.402 25.402 0 0 0-2.81-2.32l-4.148-2.994-.452-.353 10.69-4.22V.857l-8.126 3.128a71.94 71.94 0 0 0-2.64 1.143c-1.232.763-1.942 1.508-2.13 2.237l-.057.824.094 1.093.094.505 2.018 1.412c.34.213.685.393 1.037.538h1.131c1.157.751 2.118 1.469 2.885 2.153l.076.067c.917.785 1.42 1.368 1.508 1.75l.019.319c-.075.392-.49.588-1.245.588H67.88v2.96h10.672m-14.16 0h-7.9v-2.96h7.183v-.487c-.062-.606-.188-1.11-.377-1.514l-1.338-2.506c.075-.258.471-1.171 1.188-2.74a.612.612 0 0 1 .037-.085c.453.471.974 1.362 1.565 2.674l.32.824c.164.505.34 1.155.529 1.95l.264 1.279a.368.368 0 0 0 .056.151c.126.303.434.454.924.454h1.037v2.96H64.391m-1.395 5.65 2.564 1.548-1.66 1.883-2.564-1.48 1.66-1.95m-4.563 0 2.564 1.547-1.66 1.883-2.564-1.48 1.66-1.95m-5.43-5.65h-7.901v-2.96h7.183v-.488c-.062-.606-.188-1.11-.376-1.514l-1.339-2.506c.075-.258.471-1.171 1.188-2.74a.612.612 0 0 1 .038-.085c.452.471.974 1.362 1.565 2.674l.32.824c.164.505.34 1.155.528 1.95l.264 1.279a.368.368 0 0 0 .057.151c.125.303.433.454.924.454h1.037v2.96h-3.489m-1.376 3.179L54.19 24.3l-1.659 1.95-2.564-1.48 1.659-2.017m-1.735 2.909 2.565 1.547-1.66 1.984-2.564-1.513 1.66-2.018m-2.848-2.926 2.564 1.547-1.659 1.95-2.564-1.48 1.66-2.017m-6.827 2.489 2.565 1.547-1.66 1.883-2.564-1.48 1.66-1.95Zm-4.563 0 2.565 1.547-1.66 1.883-2.564-1.48 1.66-1.95Zm5.242-8.61v-.488c-.063-.606-.188-1.11-.377-1.514l-1.339-2.506c.076-.258.472-1.171 1.188-2.74a.612.612 0 0 1 .038-.085c.453.471.974 1.362 1.565 2.674l.32.824c.164.505.34 1.155.528 1.95l.264 1.279a.368.368 0 0 0 .057.151c.126.303.434.454.924.454h1.037v2.96H22.721c-.516 0-.987-.163-1.414-.488-.252-.179-.472-.465-.66-.857a3.9 3.9 0 0 1-.34-1.127l-.019-.286.038-.874c.025-.202.113-.41.264-.623a8.67 8.67 0 0 1 .453-.47c0 .37.012.6.037.689.05.28.113.46.189.538.1.112.239.224.415.336.213.135.572.202 1.074.202h5.959c.716 0 1.2-.1 1.452-.302l.17-.253.056-.302c0-.146-.1-.471-.302-.976a20.193 20.193 0 0 0-1.508-2.371c-1.132-1.368-2.294-2.422-3.489-3.162a88.598 88.598 0 0 1 1.15-2.926c.302.28.61.578.925.892 1.458 1.513 2.627 3.049 3.507 4.607.226.404.452.875.678 1.413l.849 2.203c.025.112.063.23.113.353.201.55.358.824.471.824h8.108Zm-33.43 2.96h4.751c.805 0 1.471-.113 1.999-.337a5.043 5.043 0 0 0 1.414-.908c.365-.348.61-.78.735-1.295.076-.303.114-.65.114-1.043 0-.157-.007-.33-.02-.521a10.704 10.704 0 0 0-.433-2.691 8.745 8.745 0 0 0-.81-1.95c-.39-.662-.749-1.178-1.075-1.548l-1.264 2.775c.05.045.333.56.849 1.547.49.93.773 1.525.848 1.783l.057.47-.038.202c-.214.37-.987.555-2.32.555H7.468v2.96m6.505 5.65 2.564 1.548-1.66 1.883-2.563-1.48 1.659-1.95m-4.563 0 2.564 1.547-1.66 1.883-2.563-1.48 1.659-1.95m-4.657-9.922-.359-2.506c-.05-.471-.22-1.794-.509-3.969-.126-.953-.396-2.422-.81-4.406-.415-1.95-.805-3.324-1.17-4.12L1.754 0 0 3.195c.365.64.597 1.177.698 1.615 0 .033.006.073.019.117l.697 3.414c.038.202.07.404.094.606.214 1.536.365 2.769.453 3.7.126 1.434.276 2.757.452 3.968.063.426.189.892.378 1.396.113.325.352.667.716 1.026l.094.084c.377.291.887.443 1.528.454h2.3v-2.96H5.468c-.264 0-.484-.353-.66-1.06a1.513 1.513 0 0 1-.056-.252"/></svg>
